modules/zondicons/icons/shield.svg

<?xml version="1.0" encoding="UTF-8" standalone="no"?>
<svg width="20px" height="20px" viewBox="0 0 20 20" version="1.1" xmlns="http://www.w3.org/2000/svg" xmlns:xlink="http://www.w3.org/1999/xlink">
    <!-- Generator: Sketch 3.7.2 (28276) - http://www.bohemiancoding.com/sketch -->
    <title>shield</title>
    <desc>Created with Sketch.</desc>
    <defs></defs>
    <g id="Page-1" stroke="none" stroke-width="1" fill="none" fill-rule="evenodd">
        <g id="shield" fill="#000000">
            <path d="M19,10.9999798 C19,13.2091299 17.4323196,15.8709335 15.5074835,16.940287 L10,20 L4.49251651,16.940287 C2.5636529,15.8686961 1,13.2055487 1,10.9999798 L1,3 C4.3761817,3 7.49184447,1.88458585 9.99858329,0.00216256114 C12.5058076,1.88587336 15.6225461,3.00212826 19,3.00212826 L19,10.9999798 Z M10,11.6 L7.64885899,13.236068 L8.47830955,10.4944272 L6.19577393,8.76393202 L9.05954358,8.70557279 L10,6 L10.9404564,8.70557279 L13.8042261,8.76393202 L11.5216904,10.4944272 L12.351141,13.236068 L10,11.6 Z" id="Combined-Shape"></path>
        </g>
    </g>
</svg>

<svg width="20" height="20" viewBox="0 0 20 20" xmlns="http://www.w3.org/2000/svg"><path d="M19 11c0 2.21-1.568 4.87-3.493 5.94L10 20l-5.507-3.06C2.563 15.87 1 13.206 1 11V3C4.376 3 7.492 1.885 9.999.002c2.507 1.884 5.624 3 9.001 3V11zm-9 .6l-2.351 1.636.83-2.742-2.283-1.73 2.864-.058L10 6l.94 2.706 2.864.058-2.282 1.73.83 2.742L10 11.6z" fill="#000" fill-rule="evenodd"/></svg>
